X: 149
T: Da qiuqian
L: 1/8
M: 2/4
K: Bb
c'> c' b d' [I:setbarnb 1]| 
c'> bc'2 | 
d'> f' c' b | 
g> fg2 | 
bb2c' | 
d' c' d' a | 
g g/ g/ a g | 
f df2 | 
d/ f/ d/ f/g2 | 
c'2d' c' | 
b d' g f | 
e3f | 
g g/ b/ f e | 
c4 |]

@@@ Tune index: 9023
